frontend/src/img/backgroundtablet.svg

<?xml version="1.0" encoding="UTF-8" standalone="no"?>
<svg
   id="visual"
   viewBox="0 0 900 900"
   width="900"
   height="900"
   version="1.1"
   xmlns:xlink="http://www.w3.org/1999/xlink"
   xmlns="http://www.w3.org/2000/svg">
  <defs
     id="defs7">
    <linearGradient
       id="linearGradient1">
      <stop
         style="stop-color:#000000;stop-opacity:1;"
         offset="0"
         id="stop1" />
      <stop
         style="stop-color:#000000;stop-opacity:0;"
         offset="1"
         id="stop2" />
    </linearGradient>
    <linearGradient
       xlink:href="#linearGradient1"
       id="linearGradient2"
       x1="0"
       y1="828"
       x2="900"
       y2="828"
       gradientUnits="userSpaceOnUse" />
  </defs>
  <path
     d="M0 172L90 172L180 100L270 91L360 109L450 181L540 163L630 163L720 127L810 154L900 181L900 0L810 0L720 0L630 0L540 0L450 0L360 0L270 0L180 0L90 0L0 0Z"
     fill="#64e9f5"
     id="layer1"
     style="stroke:#000000;stroke-opacity:1;fill:#51b5fb;fill-opacity:0;stroke-linecap:butt" />
  <path
     d="m 0,271 90,-9 90,-90 90,-36 90,63 90,36 90,-9 90,45 90,-72 90,63 90,-18 v -65 l -90,-27 -90,-27 -90,36 h -90 l -90,18 -90,-72 -90,-18 -90,9 -90,72 H 0 Z"
     fill="#3fdcfa"
     id="layer2"
     style="display:inline;fill:#51b5fb;fill-opacity:0;stroke:#000000;stroke-opacity:1" />
  <path
     d="M0 523L90 424L180 343L270 442L360 388L450 388L540 415L630 415L720 388L810 496L900 424L900 242L810 260L720 197L630 269L540 224L450 233L360 197L270 134L180 170L90 260L0 269Z"
     fill="#15cdfd"
     id="layer3"
     style="stroke:none;stroke-opacity:1;fill:#51b5fb;fill-opacity:0" />
  <path
     d="M0 694L90 631L180 604L270 568L360 685L450 595L540 604L630 649L720 595L810 721L900 667L900 422L810 494L720 386L630 413L540 413L450 386L360 386L270 440L180 341L90 422L0 521Z"
     fill="#00beff"
     id="layer4"
     style="stroke:#000000;stroke-opacity:1;fill:#51b5fb;fill-opacity:0" />
  <path
     d="M0 766L90 694L180 694L270 649L360 748L450 667L540 667L630 703L720 676L810 784L900 712L900 665L810 719L720 593L630 647L540 602L450 593L360 683L270 566L180 602L90 629L0 692Z"
     fill="#34acff"
     id="layer5"
     style="stroke:none;stroke-opacity:1;fill:#51b5fb;fill-opacity:0" />
  <path
     d="M0 829L90 757L180 802L270 775L360 820L450 757L540 793L630 820L720 793L810 838L900 784L900 710L810 782L720 674L630 701L540 665L450 665L360 746L270 647L180 692L90 692L0 764Z"
     fill="#8491ff"
     id="layer6"
     style="stroke:#000000;stroke-opacity:1;fill:#51b5fb;fill-opacity:0" />
  <path
     d="m 0,901 h 90 90 90 90 90 90 90 90 90 90 V 782 l -90,54 -90,-45 -90,27 -90,-27 -90,-36 -90,63 -90,-45 -90,27 -90,-45 -90,72 z"
     fill="#c868f5"
     id="layer7"
     style="display:inline;fill:#51fbd7;fill-opacity:0;stroke:url(#linearGradient2);stroke-opacity:1" />
</svg>

<?xml version="1.0" encoding="UTF-8" standalone="no"?>
<svg
   id="visual"
   viewBox="0 0 900 900"
   width="900"
   height="900"
   version="1.1"
   xmlns="http://www.w3.org/2000/svg"
>
  <defs
     id="defs7" />
  <path
     d="M0 172L90 172L180 100L270 91L360 109L450 181L540 163L630 163L720 127L810 154L900 181L900 0L810 0L720 0L630 0L540 0L450 0L360 0L270 0L180 0L90 0L0 0Z"
     fill="#64e9f5"
     id="layer1" />
  <path
     d="M0 271L90 262L180 172L270 136L360 199L450 235L540 226L630 271L720 199L810 262L900 244L900 179L810 152L720 125L630 161L540 161L450 179L360 107L270 89L180 98L90 170L0 170Z"
     fill="#3fdcfa"
     id="layer2" />
  <path
     d="M0 523L90 424L180 343L270 442L360 388L450 388L540 415L630 415L720 388L810 496L900 424L900 242L810 260L720 197L630 269L540 224L450 233L360 197L270 134L180 170L90 260L0 269Z"
     fill="#15cdfd"
     id="layer3" />
  <path
     d="M0 694L90 631L180 604L270 568L360 685L450 595L540 604L630 649L720 595L810 721L900 667L900 422L810 494L720 386L630 413L540 413L450 386L360 386L270 440L180 341L90 422L0 521Z"
     fill="#00beff"
     id="layer4" />
  <path
     d="M0 766L90 694L180 694L270 649L360 748L450 667L540 667L630 703L720 676L810 784L900 712L900 665L810 719L720 593L630 647L540 602L450 593L360 683L270 566L180 602L90 629L0 692Z"
     fill="#34acff"
     id="layer5" />
  <path
     d="M0 829L90 757L180 802L270 775L360 820L450 757L540 793L630 820L720 793L810 838L900 784L900 710L810 782L720 674L630 701L540 665L450 665L360 746L270 647L180 692L90 692L0 764Z"
     fill="#8491ff"
     id="layer6" />
  <path
     d="M0 901L90 901L180 901L270 901L360 901L450 901L540 901L630 901L720 901L810 901L900 901L900 782L810 836L720 791L630 818L540 791L450 755L360 818L270 773L180 800L90 755L0 827Z"
     fill="#c868f5"
     id="layer7" />
</svg>
